img/psyh-whom-img.svg

<svg width="540" height="467" fill="none" xmlns="http://www.w3.org/2000/svg"><path d="M1.238 370.008c37.874 16.116 65.434 54.305 68.814 95.414 5.71-25.985 13.11-60.554 35.892-77.02 19.171-13.84 44.866-13.431 66.95-19.095 18.354-4.671 38.573-16.525 40.554-37.547a246.013 246.013 0 01-8.216 80.641c7.633-15.766 10.139-32.7 11.013-50.043.816-16.759 1.457-33.576-5.535-49.225-4.604-10.219-12.237-18.978-15.849-29.605-8.799-26.161 1.107-59.737 18.471-80.116.64-.759 1.515-1.635 2.505-1.518 2.331.175 1.573 3.854.233 5.723-13.751 18.977-19.286 44.262-14.508 67.21-2.331-11.328-.758-23.299 2.272-34.277 3.205-11.503 8.39-21.43 13.751-32.116.524-.993 1.107-2.102 2.156-2.452 1.107-.351 2.389.35 2.972 1.343.582.992.699 2.277.641 3.445-.233 3.854-1.923 7.416-3.555 10.861-4.137 8.7-7.808 16.467-9.264 26.043-1.107 7.591-2.681 17.577.932 24.701-2.272-18.511 1.923-38.073 11.653-54.014 1.108-1.81 3.089-3.796 5.012-2.92 5.185 2.394-2.04 14.657-3.03 17.81-2.389 7.533-3.788 15.358-4.079 23.241-.291 8.058.757 16.525 5.069 23.298-.757-13.722-1.398-27.853 2.855-40.933.408-1.226.874-2.511 1.748-3.387.874-.934 2.331-1.46 3.496-.876 1.399.643 1.807 2.453 1.981 3.971.408 4.379-.815 8.7-.291 13.022.583 4.905.699 9.81 1.34 14.715.933 7.708 2.797 15.123 4.37 22.656 1.166 5.781-.058 11.212 1.515 17.051 3.788 13.956 12.47 26.043 15.849 40.174 2.972 12.438 1.457 25.46 1.224 38.248-.35 19.562 2.272 39.123 7.633 57.867-4.895-31.123-5.477-61.838-5.477-93.195 18.995 2.161 38.806-5.489 51.45-19.795 6.875-7.766 15.557-11.854 22.141-19.912-1.922 3.737-2.855 7.941-2.622 12.146-9.614 1.81-15.79 11.036-20.859 19.444 1.107-6.89 5.535-12.846 10.313-17.926 4.778-5.08 10.139-9.752 14.042-15.591 5.245-7.883 7.342-17.343 9.615-26.394 1.165-4.613 2.389-9.284 4.137-13.722 1.748-4.438 4.544-8.409 6.176-12.905-.583 15.416-4.195 30.89-6.643 46.072a128.4 128.4 0 008.1-37.372c.466-7.182.699-15.299 5.885-20.32-.059 16.35-.059 33.634-4.079 49.575-1.282 5.139-3.03 10.102-5.011 14.949-2.039 5.08-5.477 9.927-6.759 15.357-3.088 13.314-12.586 20.73-19.287 31.883-6.467 10.803-10.196 23.24-10.546 35.853-.524 18.686 6.351 37.547 18.82 51.445 5.244-21.839-3.437-46.364-21.209-60.028-5.128-3.913-10.896-7.008-15.791-11.27-8.157-7.066-13.285-20.088-2.389-27.445-5.011 3.387-10.488 5.43-16.373 6.774-2.971.7-5.943.934-9.089.992-5.303.059-9.556-1.46-11.537-7.007-2.04-5.722-4.137-11.562-2.681-17.693 1.282-5.489 5.011-10.336 9.964-13.08-.991.525 3.846 7.883 4.428 8.642 2.448 3.095 5.769 5.547 9.498 6.89 4.02 1.519 8.449 1.752 12.644.818 3.263-.759 8.157-3.387 7.983-7.358-6.468-.408-12.877-2.102-19.112-3.678-5.535-1.402-10.488-3.095-14.276-7.65 5.186-2.978 14.626-3.328 19.229.876.699.642 1.34 1.46 2.272 1.81 1.107.409 2.331.059 3.496 0 4.137-.35 8.216 3.037 8.682 7.124-3.904-.35-7.983-.701-11.42-2.686-9.498-5.489-3.846-18.51-.874-26.043.233-.642.524-1.285.407-1.986-.291-1.635-2.389-2.16-4.02-2.043-3.496.233-6.934 1.868-9.381 4.379-.932.993-1.806 2.511-1.049 3.621.874 1.343 2.913.759 4.545.7 3.205-.175 5.943 2.161 8.099 4.555 2.156 2.394 4.254 5.08 7.342 6.014 2.738.818 5.943 0 7.866-2.102 2.797-2.978 2.331-8.292 2.389-12.087.058-4.964.524-9.927 1.631-14.774 2.156-9.518 6.585-18.452 13.285-25.576 2.797-2.978 5.944-5.664 9.731-7.124s8.274-1.518 11.712.584c5.302 3.212 6.875 10.102 7.458 16.292.175 1.635-.116 3.737-1.69 4.029-1.748.35-2.68-1.927-3.263-3.562-1.981-5.606-7.633-9.635-13.518-9.693-5.885-.059-11.653 3.912-13.693 9.459 8.741-1.81 18.296 1.694 23.89 8.643 2.098-3.27.699-7.942-2.156-10.57-2.855-2.686-6.759-3.853-10.546-4.905-5.128-1.459-10.605-3.328-14.217-7.299-4.837-5.313-8.041-12.379-12.645-17.985-5.36-6.423-11.944-12.087-19.927-14.598-7.924-2.569-17.364-1.518-23.54 4.029 11.187-1.752 28.376.642 35.601 10.511 3.263 4.438 4.487 10.277 3.263 15.649-1.456-5.722-4.545-11.153-9.381-14.656-7.516-5.373-18.471-4.146-25.171 2.043 12.119-2.16 25.288 5.606 29.192 17.343-13.46 1.168-27.328-5.489-34.786-16.759-3.554-5.314-7.4-12.087-3.671-17.985 3.729-5.956 10.255-10.919 16.14-14.598 12.353-7.65 27.503-11.036 41.895-8.525" stroke="#CBEAFF" stroke-width="1.5" stroke-miterlimit="10" stroke-linecap="round" stroke-linejoin="round"/><path d="M380.501 208.492c-19.753-11.737-61.647-62.831-84.546-61.604-22.899 1.226-45.274 7.182-67.241 13.722 23.074 31.649 60.191 52.904 99.171 55.59 38.981 2.686 79.128-13.722 104.183-43.795 25.055-30.072 33.97-73.283 21.617-110.48-.874-2.627-2.039-5.43-4.428-6.773-2.797-1.577-6.293-.584-9.265.409-21.85 7.416-43.293 17.167-61.122 31.883-17.83 14.715-31.931 34.743-36.301 57.517-3.613 18.861-.466 38.364 3.496 57.167 3.146 15.007 7.225 30.656 17.597 41.926 9.148 9.927 22.025 15.24 34.494 20.262 2.622 1.051 5.536 2.161 8.274 1.402 5.011-1.402 6.526-8.409 4.137-13.022-3.379-6.482-14.683-15.065-20.918-18.978-8.507-5.255-18.412-8.175-28.376-8.876-13.518-.992-27.153 1.927-39.797 6.891-2.447-37.021-13.576-74.393-21.326-110.655a87088.973 87088.973 0 00-11.886-55.474c-3.788-17.81-8.624-34.86-8.857-53.196-.058-4.087.641-9.109 4.487-10.627 4.486-1.752 8.681 2.92 11.187 7.007 33.387 54.13 54.422 114.509 78.836 173.077-49.003-55.24-140.774-65.517-200.79-22.481a86748.632 86748.632 0 01113.855-39.357c17.13-5.898 33.27-13.197 50.984-17.693a313.343 313.343 0 0155.995-8.934c.757-.059 1.515-.117 2.272-.117-17.48 16.7-39.389 27.795-61.006 38.481-21.617 10.686-43.642 21.489-61.53 37.78-17.888 16.292-31.348 39.065-30.707 63.24-.059-1.752 11.187-7.942 12.877-9.051a242.703 242.703 0 0114.392-8.759c9.264-5.197 18.879-9.109 28.26-14.189 21.267-11.504 42.477-22.949 63.744-34.452 10.197 7.24 7.167 25.167-3.729 31.298-10.896 6.132-25.346 2.044-34.378-6.598-9.031-8.642-13.751-20.846-17.247-32.875-7.982-27.445-11.187-56.116-20.219-83.21-9.031-27.095-25.463-53.547-51.333-65.518 47.429 58.452 110.067 104.35 179.988 131.97 6.176 2.452 13.343 5.956 14.043 12.554.932 8.993-10.722 13.431-19.753 13.664-21.559.643-43.293-4.73-62.055-15.474-4.312-2.452-8.915-6.131-8.624-11.036.292-4.73 5.07-7.767 9.265-9.869 26.395-13.255 54.771-22.481 83.847-27.328-.699 21.372-27.677 30.832-48.945 29.781-25.055-1.285-49.178-9.109-73.592-14.89-24.414-5.781-50.226-9.518-74.349-2.628-24.123 6.89-45.973 26.919-48.129 51.911-2.156 24.993 21.967 50.919 46.323 44.788 15.907-3.971 26.395-18.569 37.349-30.715 11.013-12.146 27.153-23.474 42.652-18.16 6.992 7.007 2.797 20.496-6.235 24.525-9.031 4.029-20.044.292-27.211-6.482-7.167-6.773-11.362-16.116-15.207-25.284-16.898-40.116-30.766-86.013-14.393-126.304 2.273-5.606 6.585-11.796 12.586-11.095 6.235.7 8.857 8.175 10.139 14.248 12.702 59.62 25.346 119.297 38.048 178.917 1.807 8.35 3.671 16.992 8.508 24.057 4.836 7.066 13.343 12.263 21.733 10.628 12.236-2.452 17.422-17.226 17.655-29.722.35-22.598-8.215-41.459-18.645-60.904-10.547-19.679-22.433-38.656-35.66-56.7 2.622 3.621 11.828 6.599 15.732 8.993a272.184 272.184 0 0116.898 11.153c10.721 7.591 20.976 15.883 30.707 24.759 19.403 17.809 38.573 35.035 53.548 56.933-32.805-3.212-57.51-30.949-75.224-58.744-10.663-16.7-20.277-34.568-23.656-54.072-3.38-19.503.233-41.05 13.518-55.824 12.061-13.43 31.522-19.62 49.119-15.707 17.597 3.912 32.572 17.868 37.816 35.152 8.39 27.737-8.332 57.81-31.232 75.503-22.899 17.693-51.275 26.452-77.67 38.306-40.03 17.985-76.564 43.736-106.979 75.385 19.519 8.817 42.418 7.299 62.696.35 20.218-6.948 38.34-18.861 56.169-30.773 7.051-4.73 16.024-9.576 23.482-5.547 9.848 5.314 7.284 20.438 1.224 29.839s-14.509 19.27-12.236 30.247c13.576 3.154 22.374-13.196 30.59-24.525 11.537-15.766 30.882-23.941 49.994-24.466 9.031-.234 63.744 5.489 65.492 16.992-1.981-12.846-7.691-25.343-17.305-34.043-9.614-8.701-23.365-13.139-36.009-10.102-10.255 2.452-18.879 9.459-25.755 17.518-22.258 26.101-19.403 55.648-23.773 87.239-1.923 13.956-4.778 27.912-10.779 40.758-1.515 3.329-23.948 35.854-26.162 32.934 19.461 26.043 40.729 53.43 71.319 64.174 12.935 4.555 27.561 5.723 40.263.526 12.702-5.197 22.841-17.752 22.783-31.474-.059-13.781-12.237-27.036-25.93-26.044-11.828.876-21.325 11.854-23.132 23.591-1.806 11.796 2.914 23.766 10.022 33.284 21.967 29.255 69.106 35.095 97.54 12.029" stroke="#CBEAFF" stroke-width="1.5" stroke-miterlimit="10" stroke-linecap="round" stroke-linejoin="round"/></svg>

<svg width="540" height="467" viewBox="0 0 540 467" fill="none" xmlns="http://www.w3.org/2000/svg">
<path d="M1.23773 370.008C39.1116 386.124 66.6722 424.313 70.0517 465.422C75.7619 439.437 83.1619 404.868 105.944 388.402C125.115 374.562 150.81 374.971 172.894 369.307C191.248 364.636 211.467 352.782 213.448 331.76C215.196 358.855 212.399 386.241 205.232 412.401C212.865 396.635 215.371 379.701 216.245 362.358C217.061 345.599 217.702 328.782 210.71 313.133C206.106 302.914 198.473 294.155 194.861 283.528C186.062 257.367 195.968 223.791 213.332 203.412C213.972 202.653 214.847 201.777 215.837 201.894C218.168 202.069 217.41 205.748 216.07 207.617C202.319 226.594 196.784 251.879 201.562 274.827C199.231 263.499 200.804 251.528 203.834 240.55C207.039 229.047 212.224 219.12 217.585 208.434C218.109 207.441 218.692 206.332 219.741 205.982C220.848 205.631 222.13 206.332 222.713 207.325C223.295 208.317 223.412 209.602 223.354 210.77C223.121 214.624 221.431 218.186 219.799 221.631C215.662 230.331 211.991 238.098 210.535 247.674C209.428 255.265 207.854 265.251 211.467 272.375C209.195 253.864 213.39 234.302 223.12 218.361C224.228 216.551 226.209 214.565 228.132 215.441C233.317 217.835 226.092 230.098 225.102 233.251C222.713 240.784 221.314 248.609 221.023 256.492C220.732 264.55 221.78 273.017 226.092 279.79C225.335 266.068 224.694 251.937 228.947 238.857C229.355 237.631 229.821 236.346 230.695 235.47C231.569 234.536 233.026 234.01 234.191 234.594C235.59 235.237 235.998 237.047 236.172 238.565C236.58 242.944 235.357 247.265 235.881 251.587C236.464 256.492 236.58 261.397 237.221 266.302C238.154 274.01 240.018 281.425 241.591 288.958C242.757 294.739 241.533 300.17 243.106 306.009C246.894 319.965 255.576 332.052 258.955 346.183C261.927 358.621 260.412 371.643 260.179 384.431C259.829 403.993 262.451 423.554 267.812 442.298C262.917 411.175 262.335 380.46 262.335 349.103C281.33 351.264 301.141 343.614 313.785 329.308C320.66 321.542 329.342 317.454 335.926 309.396C334.004 313.133 333.071 317.337 333.304 321.542C323.69 323.352 317.514 332.578 312.445 340.986C313.552 334.096 317.98 328.14 322.758 323.06C327.536 317.98 332.897 313.308 336.8 307.469C342.045 299.586 344.142 290.126 346.415 281.075C347.58 276.462 348.804 271.791 350.552 267.353C352.3 262.915 355.096 258.944 356.728 254.448C356.145 269.864 352.533 285.338 350.085 300.52C354.63 288.549 357.369 275.936 358.185 263.148C358.651 255.966 358.884 247.849 364.07 242.828C364.011 259.178 364.011 276.462 359.991 292.403C358.709 297.542 356.961 302.505 354.98 307.352C352.941 312.432 349.503 317.279 348.221 322.709C345.133 336.023 335.635 343.439 328.934 354.592C322.467 365.395 318.738 377.832 318.388 390.445C317.864 409.131 324.739 427.992 337.208 441.89C342.452 420.051 333.771 395.526 315.999 381.862C310.871 377.949 305.103 374.854 300.208 370.592C292.051 363.526 286.923 350.504 297.819 343.147C292.808 346.534 287.331 348.577 281.446 349.921C278.475 350.621 275.503 350.855 272.357 350.913C267.054 350.972 262.801 349.453 260.82 343.906C258.78 338.184 256.683 332.344 258.139 326.213C259.421 320.724 263.15 315.877 268.103 313.133C267.112 313.658 271.949 321.016 272.531 321.775C274.979 324.87 278.3 327.322 282.029 328.665C286.049 330.184 290.478 330.417 294.673 329.483C297.936 328.724 302.83 326.096 302.656 322.125C296.188 321.717 289.779 320.023 283.544 318.447C278.009 317.045 273.056 315.352 269.268 310.797C274.454 307.819 283.894 307.469 288.497 311.673C289.196 312.315 289.837 313.133 290.769 313.483C291.876 313.892 293.1 313.542 294.265 313.483C298.402 313.133 302.481 316.52 302.947 320.607C299.043 320.257 294.964 319.906 291.527 317.921C282.029 312.432 287.681 299.411 290.653 291.878C290.886 291.236 291.177 290.593 291.06 289.892C290.769 288.257 288.671 287.732 287.04 287.849C283.544 288.082 280.106 289.717 277.659 292.228C276.727 293.221 275.853 294.739 276.61 295.849C277.484 297.192 279.523 296.608 281.155 296.549C284.36 296.374 287.098 298.71 289.254 301.104C291.41 303.498 293.508 306.184 296.596 307.118C299.334 307.936 302.539 307.118 304.462 305.016C307.259 302.038 306.793 296.724 306.851 292.929C306.909 287.965 307.375 283.002 308.482 278.155C310.638 268.637 315.067 259.703 321.767 252.579C324.564 249.601 327.711 246.915 331.498 245.455C335.285 243.995 339.772 243.937 343.21 246.039C348.512 249.251 350.085 256.141 350.668 262.331C350.843 263.966 350.552 266.068 348.978 266.36C347.23 266.71 346.298 264.433 345.715 262.798C343.734 257.192 338.082 253.163 332.197 253.105C326.312 253.046 320.544 257.017 318.504 262.564C327.245 260.754 336.8 264.258 342.394 271.207C344.492 267.937 343.093 263.265 340.238 260.637C337.383 257.951 333.479 256.784 329.692 255.732C324.564 254.273 319.087 252.404 315.475 248.433C310.638 243.12 307.434 236.054 302.83 230.448C297.47 224.025 290.886 218.361 282.903 215.85C274.979 213.281 265.539 214.332 259.363 219.879C270.55 218.127 287.739 220.521 294.964 230.39C298.227 234.828 299.451 240.667 298.227 246.039C296.771 240.317 293.682 234.886 288.846 231.383C281.33 226.01 270.375 227.237 263.675 233.426C275.794 231.266 288.963 239.032 292.867 250.769C279.407 251.937 265.539 245.28 258.081 234.01C254.527 228.696 250.681 221.923 254.41 216.025C258.139 210.069 264.665 205.106 270.55 201.427C282.903 193.777 298.053 190.391 312.445 192.902" stroke="#CBEAFF" stroke-width="1.5" stroke-miterlimit="10" stroke-linecap="round" stroke-linejoin="round"/>
<path d="M380.501 208.492C360.748 196.755 318.854 145.661 295.955 146.888C273.056 148.114 250.681 154.07 228.714 160.61C251.788 192.259 288.905 213.514 327.885 216.2C366.866 218.886 407.013 202.478 432.068 172.405C457.123 142.333 466.038 99.1221 453.685 61.9257C452.811 59.298 451.646 56.4952 449.257 55.1521C446.46 53.5755 442.964 54.5682 439.992 55.5609C418.142 62.9768 396.699 72.7285 378.87 87.4435C361.04 102.159 346.939 122.187 342.569 144.961C338.956 163.822 342.103 183.325 346.065 202.128C349.211 217.135 353.29 232.784 363.662 244.054C372.81 253.981 385.687 259.294 398.156 264.316C400.778 265.367 403.692 266.477 406.43 265.718C411.441 264.316 412.956 257.309 410.567 252.696C407.188 246.214 395.884 237.631 389.649 233.718C381.142 228.463 371.237 225.543 361.273 224.842C347.755 223.85 334.12 226.769 321.476 231.733C319.029 194.712 307.9 157.34 300.15 121.078C296.188 102.567 292.226 84.0567 288.264 65.6045C284.476 47.7946 279.64 30.7438 279.407 12.4084C279.349 8.32086 280.048 3.29906 283.894 1.78083C288.38 0.029042 292.575 4.70049 295.081 8.78801C328.468 62.9184 349.503 123.297 373.917 181.865C324.914 126.625 233.143 116.348 173.127 159.384C211.059 146.245 249.05 133.107 286.982 120.027C304.112 114.129 320.252 106.83 337.966 102.334C356.32 97.6623 375.082 94.6843 393.961 93.3996C394.718 93.3412 395.476 93.2828 396.233 93.2828C378.753 109.983 356.844 121.078 335.227 131.764C313.61 142.45 291.585 153.253 273.697 169.544C255.809 185.836 242.349 208.609 242.99 232.784C242.931 231.032 254.177 224.842 255.867 223.733C260.587 220.638 265.364 217.719 270.259 214.974C279.523 209.777 289.138 205.865 298.519 200.785C319.786 189.281 340.996 177.836 362.263 166.333C372.46 173.573 369.43 191.5 358.534 197.631C347.638 203.763 333.188 199.675 324.156 191.033C315.125 182.391 310.405 170.187 306.909 158.158C298.927 130.713 295.722 102.042 286.69 74.9474C277.659 47.853 261.227 21.4009 235.357 9.43033C282.786 67.8818 345.424 113.779 415.345 141.399C421.521 143.851 428.688 147.355 429.388 153.953C430.32 162.946 418.666 167.384 409.635 167.617C388.076 168.26 366.342 162.887 347.58 152.143C343.268 149.691 338.665 146.012 338.956 141.107C339.248 136.377 344.026 133.34 348.221 131.238C374.616 117.983 402.992 108.757 432.068 103.91C431.369 125.282 404.391 134.742 383.123 133.691C358.068 132.406 333.945 124.582 309.531 118.801C285.117 113.02 259.305 109.283 235.182 116.173C211.059 123.063 189.209 143.092 187.053 168.084C184.897 193.077 209.02 219.003 233.376 212.872C249.283 208.901 259.771 194.303 270.725 182.157C281.738 170.011 297.878 158.683 313.377 163.997C320.369 171.004 316.174 184.493 307.142 188.522C298.111 192.551 287.098 188.814 279.931 182.04C272.764 175.267 268.569 165.924 264.724 156.756C247.826 116.64 233.958 70.7431 250.331 30.4518C252.604 24.8461 256.916 18.6564 262.917 19.3572C269.152 20.0579 271.774 27.5322 273.056 33.6051C285.758 93.2244 298.402 152.902 311.104 212.522C312.911 220.872 314.775 229.514 319.612 236.579C324.448 243.645 332.955 248.842 341.345 247.207C353.581 244.755 358.767 229.981 359 217.485C359.35 194.887 350.785 176.026 340.355 156.581C329.808 136.902 317.922 117.925 304.695 99.8812C307.317 103.502 316.523 106.48 320.427 108.874C326.196 112.377 331.848 116.115 337.325 120.027C348.046 127.618 358.301 135.91 368.032 144.786C387.435 162.595 406.605 179.821 421.58 201.719C388.775 198.507 364.07 170.77 346.356 142.975C335.693 126.275 326.079 108.407 322.7 88.9033C319.32 69.4 322.933 47.853 336.218 33.0795C348.279 19.6491 367.74 13.4595 385.337 17.3718C402.934 21.2841 417.909 35.2401 423.153 52.5244C431.543 80.2612 414.821 110.334 391.921 128.027C369.022 145.72 340.646 154.479 314.251 166.333C274.221 184.318 237.687 210.069 207.272 241.718C226.791 250.535 249.69 249.017 269.968 242.068C290.186 235.12 308.308 223.207 326.137 211.295C333.188 206.565 342.161 201.719 349.619 205.748C359.467 211.062 356.903 226.186 350.843 235.587C344.783 244.988 336.334 254.857 338.607 265.834C352.183 268.988 360.981 252.638 369.197 241.309C380.734 225.543 400.079 217.368 419.191 216.843C428.222 216.609 482.935 222.332 484.683 233.835C482.702 220.989 476.992 208.492 467.378 199.792C457.764 191.091 444.013 186.653 431.369 189.69C421.114 192.142 412.49 199.149 405.614 207.208C383.356 233.309 386.211 262.856 381.841 294.447C379.918 308.403 377.063 322.359 371.062 335.205C369.547 338.534 347.114 371.059 344.9 368.139C364.361 394.182 385.629 421.569 416.219 432.313C429.154 436.868 443.78 438.036 456.482 432.839C469.184 427.642 479.323 415.087 479.265 401.365C479.206 387.584 467.028 374.329 453.335 375.321C441.507 376.197 432.01 387.175 430.203 398.912C428.397 410.708 433.117 422.678 440.225 432.196C462.192 461.451 509.331 467.291 537.765 444.225" stroke="#CBEAFF" stroke-width="1.5" stroke-miterlimit="10" stroke-linecap="round" stroke-linejoin="round"/>
</svg>
